mobile/assets/images/personal_selected.svg

<svg width="24" height="24" viewBox="0 0 24 24" fill="none" xmlns="http://www.w3.org/2000/svg">
<path fill-rule="evenodd" clip-rule="evenodd" d="M8.50001 3C7.57815 3 6.46486 3.3358 5.56883 4.11496C4.64275 4.92024 4 6.15565 4 7.82609C4 10.7793 6.09969 13 8.50001 13C10.9003 13 13 10.7793 13 7.82609C13 6.15566 12.3573 4.92025 11.4312 4.11496C10.5352 3.3358 9.42188 3 8.50001 3ZM6 7.82609C6 6.71391 6.40726 6.03628 6.88118 5.62417C7.38515 5.18594 8.02188 5 8.50001 5C8.97815 5 9.61486 5.18594 10.1188 5.62417C10.5927 6.03628 11 6.71391 11 7.82609C11 9.88158 9.59968 11 8.50001 11C7.40033 11 6 9.88157 6 7.82609Z" fill="#21201F"/>
<path fill-rule="evenodd" clip-rule="evenodd" d="M1 18.5117C1 15.6086 3.50313 14 8.5 14C13.4969 14 16 15.6086 16 18.5117C16 19.8885 12.6437 21 8.5 21C4.35625 21 1 19.8885 1 18.5117ZM3.82557 18.3738C3.46813 18.2553 3.21248 18.1401 3.04061 18.046C3.13708 17.5447 3.41091 17.1847 3.91997 16.8732C4.71453 16.3871 6.15813 16 8.5 16C10.8419 16 12.2855 16.3871 13.08 16.8732C13.5891 17.1847 13.8629 17.5447 13.9594 18.046C13.7875 18.1401 13.5319 18.2553 13.1744 18.3738C12.0706 18.7398 10.4181 19 8.5 19C6.58192 19 4.92944 18.7398 3.82557 18.3738ZM14.2149 17.875L14.2159 17.874C14.2159 17.874 14.2131 17.8763 14.2086 17.881L14.2149 17.875Z" fill="#21201F"/>
<path fill-rule="evenodd" clip-rule="evenodd" d="M15.1982 5.92044C15.8922 5.28246 16.7625 5 17.5 5C18.2376 5 19.1078 5.28246 19.8018 5.92045C20.522 6.58257 21 7.57875 21 8.8892C21 11.1926 19.4325 13 17.5 13C15.5674 13 14 11.1926 14 8.8892C14 7.57874 14.478 6.58257 15.1982 5.92044ZM16.5518 7.39283C16.272 7.65 16 8.09842 16 8.8892C16 10.368 16.9325 11 17.5 11C18.0674 11 19 10.368 19 8.8892C19 8.09841 18.728 7.64999 18.4482 7.39283C18.1422 7.11152 17.7625 7 17.5 7C17.2376 7 16.8578 7.11152 16.5518 7.39283Z" fill="#21201F"/>
<path d="M17.5 20C17.33 20 17.1618 19.997 16.9957 19.9912C17.2852 19.5983 17.5 19.1055 17.5 18.5117C17.5 18.3383 17.4931 18.1677 17.4793 18L17.5 18C18.8371 18 19.9558 17.7869 20.6668 17.5113C20.7833 17.4661 20.8784 17.4233 20.955 17.385C20.8758 17.0132 20.6973 16.7964 20.4608 16.6273C20.026 16.3164 19.1339 16 17.5 16C17.2981 16 17.1075 16.0048 16.9277 16.0139C16.569 15.3118 16.0444 14.699 15.3622 14.1942C15.9876 14.0657 16.7003 14 17.5 14C21.1644 14 23 15.3788 23 17.8671C23 19.0473 20.5387 20 17.5 20Z" fill="#21201F"/>
</svg>

<svg xmlns="http://www.w3.org/2000/svg" width="24" height="24" fill="none" viewBox="0 0 24 24">
  <path fill="#21201F" fill-rule="evenodd" d="M8.5 3c-.922 0-2.035.336-2.931 1.115C4.643 4.92 4 6.155 4 7.826 4 10.78 6.1 13 8.5 13S13 10.78 13 7.826c0-1.67-.643-2.906-1.569-3.711A4.568 4.568 0 0 0 8.5 3ZM6 7.826c0-1.112.407-1.79.881-2.202A2.571 2.571 0 0 1 8.5 5c.478 0 1.115.186 1.619.624.474.412.881 1.09.881 2.202C11 9.882 9.6 11 8.5 11S6 9.882 6 7.826ZM1 18.512C1 15.609 3.503 14 8.5 14s7.5 1.609 7.5 4.512C16 19.889 12.644 21 8.5 21S1 19.889 1 18.512Zm2.826-.138a4.808 4.808 0 0 1-.785-.328c.096-.501.37-.861.879-1.173C4.715 16.387 6.158 16 8.5 16s3.786.387 4.58.873c.51.312.783.672.88 1.173a4.81 4.81 0 0 1-.786.328C12.071 18.74 10.418 19 8.5 19c-1.918 0-3.57-.26-4.674-.626Zm10.389-.499v-.001l-.006.007.006-.006Zm.983-11.955A3.47 3.47 0 0 1 17.5 5a3.47 3.47 0 0 1 2.302.92C20.522 6.583 21 7.58 21 8.89c0 2.303-1.567 4.11-3.5 4.11S14 11.193 14 8.89c0-1.311.478-2.307 1.198-2.97Zm1.354 1.473c-.28.257-.552.705-.552 1.496 0 1.479.933 2.111 1.5 2.111s1.5-.632 1.5-2.11c0-.792-.272-1.24-.552-1.497A1.473 1.473 0 0 0 17.5 7c-.262 0-.642.112-.948.393Z" clip-rule="evenodd"/>
  <path fill="#21201F" d="M17.5 20c-.17 0-.338-.003-.504-.009a2.46 2.46 0 0 0 .504-1.48c0-.173-.007-.343-.02-.511h.02c1.337 0 2.456-.213 3.167-.489.116-.045.211-.088.288-.126a1.165 1.165 0 0 0-.494-.758c-.435-.31-1.327-.627-2.961-.627-.202 0-.392.005-.572.014a5.205 5.205 0 0 0-1.566-1.82A10.679 10.679 0 0 1 17.5 14c3.664 0 5.5 1.379 5.5 3.867C23 19.047 20.539 20 17.5 20Z"/>
</svg>
